packages/symbols/svgs/outline/layer-group-outline.svg

<svg width="24" height="24" viewBox="0 0 24 24" fill="none" xmlns="http://www.w3.org/2000/svg">
<g clip-path="url(#clip0_1150_5530)">
<path fill-rule="evenodd" clip-rule="evenodd" d="M11.4855 0.142507C11.8022 -0.0475024 12.1978 -0.0475024 12.5145 0.142507L22.5145 6.14251C22.8157 6.32323 23 6.64874 23 7C23 7.35126 22.8157 7.67677 22.5145 7.85749L12.5145 13.8575C12.1978 14.0475 11.8022 14.0475 11.4855 13.8575L1.4855 7.85749C1.1843 7.67677 1 7.35126 1 7C1 6.64874 1.1843 6.32323 1.4855 6.14251L11.4855 0.142507ZM3.94365 7L12 11.8338L20.0563 7L12 2.16619L3.94365 7Z" fill="black"/>
<path fill-rule="evenodd" clip-rule="evenodd" d="M1.14241 11.4855C1.42656 11.0119 2.04082 10.8584 2.5144 11.1425L11.9999 16.8338L21.4854 11.1425C21.959 10.8584 22.5733 11.0119 22.8574 11.4855C23.1415 11.9591 22.988 12.5733 22.5144 12.8575L12.5144 18.8575C12.1977 19.0475 11.8021 19.0475 11.4854 18.8575L1.48541 12.8575C1.01183 12.5733 0.858266 11.9591 1.14241 11.4855Z" fill="black"/>
<path fill-rule="evenodd" clip-rule="evenodd" d="M1.14241 16.4855C1.42656 16.0119 2.04082 15.8584 2.5144 16.1425L11.9999 21.8338L21.4854 16.1425C21.959 15.8584 22.5733 16.0119 22.8574 16.4855C23.1415 16.9591 22.988 17.5733 22.5144 17.8575L12.5144 23.8575C12.1977 24.0475 11.8021 24.0475 11.4854 23.8575L1.48541 17.8575C1.01183 17.5733 0.858266 16.9591 1.14241 16.4855Z" fill="black"/>
</g>
<defs>
<clipPath id="clip0_1150_5530">
<rect width="24" height="24" fill="white"/>
</clipPath>
</defs>
</svg>

<svg width="24" height="24" viewBox="0 0 24 24" xmlns="http://www.w3.org/2000/svg"><g clip-path="url(#a)" fill-rule="evenodd" clip-rule="evenodd"><path d="M11.486.143a1 1 0 0 1 1.028 0l10 6a1 1 0 0 1 0 1.714l-10 6a1 1 0 0 1-1.028 0l-10-6a1 1 0 0 1 0-1.714l10-6ZM3.944 7 12 11.834 20.056 7 12 2.166 3.944 7Z"/><path d="M1.142 11.486a1 1 0 0 1 1.372-.344L12 16.834l9.485-5.691a1 1 0 0 1 1.03 1.714l-10 6a1 1 0 0 1-1.03 0l-10-6a1 1 0 0 1-.343-1.371Z"/><path d="M1.142 16.485a1 1 0 0 1 1.372-.343L12 21.834l9.485-5.692a1 1 0 0 1 1.03 1.716l-10 6a1 1 0 0 1-1.03 0l-10-6a1 1 0 0 1-.343-1.373Z"/></g><defs><clipPath id="a"><path fill="#fff" d="M0 0h24v24H0z"/></clipPath></defs></svg>
